svg/text-bulk.svg

<svg id="Layer_1" xmlns="http://www.w3.org/2000/svg" viewBox="0 0 19 19"><style>.st0{fill-rule:evenodd;clip-rule:evenodd;fill:#484848;}</style><path class="st0" d="M13.1 8.6c-.2.2-.5.3-.7.4h-.1c-.1 0-.2.1-.3.1v6.8H5.7V6H10c-.1-.2-.2-.3-.3-.5-.2-.6-.3-1.1-.3-1.6 0-.6.1-1.2.4-1.7h-.6v-.5C9.2.9 8.5.2 7.7.2H2C1.2.2.5.9.5 1.7v11.7c0 .8.7 1.5 1.5 1.5h.5v.4c0 .8.7 1.5 1.5 1.5h.5v.4c0 .8.7 1.5 1.5 1.5h5.7c.8 0 1.5-.7 1.5-1.5V8.5l-.1.1zm-10.6-5v8.5h-.8V2.2h1.9c-.6.1-1.1.7-1.1 1.4zm2 1.9V14h-.8V4.1h1.9c-.6.1-1.1.7-1.1 1.4zm4.4 12.6c-.6 0-1.1-.4-1.1-.8s.5-.8 1.1-.8c.6 0 1 .3 1 .8s-.4.8-1 .8z"/><path class="st0" d="M14.3.2c-2.2 0-4.1 1.6-4.1 3.6 0 .5.1.9.2 1.2l.3.6c.1.2.3.4.3.8.1.7-.3 1.4-.9 1.8v.2c.3 0 .6.1.9 0s.6-.1.9-.2l.6-.3.2-.2c.1 0 .2-.2.2-.2.4.1.8.2 1.2.2 2.3 0 4.1-1.7 4.1-3.7.2-2.1-1.6-3.8-3.9-3.8zm0 1c.4 0 .9.1 1.2.2.4.2.7.4 1 .6.6.5.9 1.1.9 1.8 0 1.5-1.4 2.7-3.1 2.7-.3 0-.6-.1-.9-.1l-.6-.1-.4.4c-.1.1-.2.2-.3.2v-.2c0-.4-.1-.7-.2-1s-.4-.6-.6-.9c-.4-1-.1-2 .8-2.7.6-.6 1.5-.9 2.2-.9z"/></svg>

<?xml version="1.0" encoding="utf-8"?>
<!-- Generator: Adobe Illustrator 22.0.1, SVG Export Plug-In . SVG Version: 6.00 Build 0)  -->
<svg version="1.1" id="Layer_1" xmlns="http://www.w3.org/2000/svg" xmlns:xlink="http://www.w3.org/1999/xlink" x="0px" y="0px"
	 viewBox="0 0 19 19" style="enable-background:new 0 0 19 19;" xml:space="preserve">
<style type="text/css">
	.st0{fill-rule:evenodd;clip-rule:evenodd;fill:#484848;}
</style>
<g>
	<path class="st0" d="M13.1,8.6c-0.2,0.2-0.5,0.3-0.7,0.4l-0.1,0c-0.1,0-0.2,0.1-0.3,0.1l0,6.8H5.7V6H10C9.9,5.8,9.8,5.7,9.7,5.5
		C9.5,4.9,9.4,4.4,9.4,3.9c0-0.6,0.1-1.2,0.4-1.7c0,0,0,0,0,0H9.2V1.7c0-0.8-0.7-1.5-1.5-1.5H2c-0.8,0-1.5,0.7-1.5,1.5v11.7
		c0,0.8,0.7,1.5,1.5,1.5h0.5v0.4c0,0.8,0.7,1.5,1.5,1.5h0.5v0.4c0,0.8,0.7,1.5,1.5,1.5h5.7c0.8,0,1.5-0.7,1.5-1.5l0-8.7
		C13.2,8.5,13.2,8.5,13.1,8.6z M2.5,3.6v8.5H1.7V2.2h1.9C3,2.3,2.5,2.9,2.5,3.6z M4.5,5.5V14H3.7V4.1h1.9C5,4.2,4.5,4.8,4.5,5.5z
		 M8.9,18.1c-0.6,0-1.1-0.4-1.1-0.8c0-0.4,0.5-0.8,1.1-0.8c0.6,0,1,0.3,1,0.8C9.9,17.8,9.5,18.1,8.9,18.1z"/>
	<path class="st0" d="M14.3,0.2c-2.2,0-4.1,1.6-4.1,3.6c0,0.5,0.1,0.9,0.2,1.2c0.1,0.2,0.2,0.4,0.3,0.6c0.1,0.2,0.3,0.4,0.3,0.8
		c0.1,0.7-0.3,1.4-0.9,1.8v0.2c0.3,0,0.6,0.1,0.9,0s0.6-0.1,0.9-0.2c0.2-0.1,0.4-0.2,0.6-0.3c0.1-0.1,0.2-0.2,0.2-0.2
		c0.1,0,0.2-0.2,0.2-0.2c0.4,0.1,0.8,0.2,1.2,0.2c2.3,0,4.1-1.7,4.1-3.7C18.4,1.9,16.6,0.2,14.3,0.2z M14.3,1.2
		c0.4,0,0.9,0.1,1.2,0.2c0.4,0.2,0.7,0.4,1,0.6c0.6,0.5,0.9,1.1,0.9,1.8c0,1.5-1.4,2.7-3.1,2.7c-0.3,0-0.6-0.1-0.9-0.1l-0.6-0.1
		l-0.4,0.4c-0.1,0.1-0.2,0.2-0.3,0.2V6.7c0-0.4-0.1-0.7-0.2-1s-0.4-0.6-0.6-0.9c-0.4-1-0.1-2,0.8-2.7C12.7,1.5,13.6,1.2,14.3,1.2z"
		/>
</g>
</svg>
